X: 58
T: Edwards glada
R: slängpolska
O: Småland, Bredvassa, Loftahammar
L: 1/8
M: 3/4
K: G
(D |: G)B Ac Bd | ef g2 B2 | c>d ed cB | A>G (F/G/)F/E/ DE/F/ |
GB Ac Bd | ef g2 B2 | c>d ed cB |1 (A/G/)F/A/ G3 D :|2 (A/G/)F/A/ G3 (B |]
d2) Bd/B/ Ge- | ed- dc- cB | d2  Bd/B/ Ge- | ed- dc- cB |
GB Ac Bd | ef g2 B2 | c>d ed cB |1 (A/G/)F/A/ G3B :|2 (A/G/)F/A/ G4 |]

